dist/images/eye.svg

<?xml version="1.0" encoding="UTF-8"?>
<svg width="15px" height="9px" viewBox="0 0 15 9" version="1.1" xmlns="http://www.w3.org/2000/svg" xmlns:xlink="http://www.w3.org/1999/xlink">
    <title></title>
    <g id="Mobile" stroke="none" stroke-width="1" fill="none" fill-rule="evenodd">
        <g id="Mobile-Products" transform="translate(-1320.000000, -1634.000000)" fill="#53C999" fill-rule="nonzero">
            <g id="Group-11-Copy" transform="translate(1267.683315, 1256.000000)">
                <g id="Group-10" transform="translate(30.343750, 186.500000)">
                    <g id="Group-9" transform="translate(12.605294, 177.500000)">
                        <path d="M16.6052941,23 C17.9750858,23 19.2758671,22.6393229 20.5076379,21.9179688 C21.7394087,21.1966146 22.7198775,20.2369792 23.4490441,19.0390625 C23.5532108,18.8567708 23.6052941,18.6770833 23.6052941,18.5 C23.6052941,18.3229167 23.5532108,18.1432292 23.4490441,17.9609375 C22.7198775,16.7682292 21.7394087,15.8098958 20.5076379,15.0859375 C19.2758671,14.3619792 17.9750858,14 16.6052941,14 C15.2355025,14 13.9347212,14.3619792 12.7029504,15.0859375 C11.4711796,15.8098958 10.4907108,16.7682292 9.76154415,17.9609375 C9.65737748,18.1432292 9.60529415,18.3229167 9.60529415,18.5 C9.60529415,18.6770833 9.65737748,18.8567708 9.76154415,19.0390625 C10.4907108,20.2317708 11.4711796,21.1901042 12.7029504,21.9140625 C13.9347212,22.6380208 15.2355025,23 16.6052941,23 Z M14.6052941,17.875 C14.5011275,17.875 14.4125858,17.8385417 14.3396691,17.765625 C14.2667525,17.6927083 14.2302941,17.6041667 14.2302941,17.5 C14.2302941,16.8489583 14.4633671,16.2903646 14.9295129,15.8242188 C15.3956587,15.3580729 15.9542525,15.125 16.6052941,15.125 C16.7094608,15.125 16.7980025,15.1614583 16.8709191,15.234375 C16.9438358,15.3072917 16.9802941,15.3958333 16.9802941,15.5 C16.9802941,15.6041667 16.9438358,15.6927083 16.8709191,15.765625 C16.7980025,15.8385417 16.7094608,15.875 16.6052941,15.875 C16.1573775,15.875 15.774565,16.0338542 15.4568566,16.3515625 C15.1391483,16.6692708 14.9802941,17.0520833 14.9802941,17.5 C14.9802941,17.6041667 14.9438358,17.6927083 14.8709191,17.765625 C14.7980025,17.8385417 14.7094608,17.875 14.6052941,17.875 Z M16.6052941,22 C15.3865441,22 14.2550337,21.6835938 13.2107629,21.0507812 C12.1664921,20.4179688 11.2980025,19.5677083 10.6052941,18.5 C11.3969608,17.2708333 12.3891483,16.3515625 13.5818566,15.7421875 C13.2641483,16.2838542 13.1052941,16.8697917 13.1052941,17.5 C13.1052941,18.4635417 13.4477421,19.2877604 14.1326379,19.9726562 C14.8175337,20.6575521 15.6417525,21 16.6052941,21 C17.5688358,21 18.3930546,20.6575521 19.0779504,19.9726562 C19.7628462,19.2877604 20.1052941,18.4635417 20.1052941,17.5 C20.1052941,16.8697917 19.94644,16.2838542 19.6287316,15.7421875 C20.82144,16.3515625 21.8136275,17.2708333 22.6052941,18.5 C21.9125858,19.5677083 21.0440962,20.4179688 19.9998254,21.0507812 C18.9555546,21.6835938 17.8240441,22 16.6052941,22 Z" id=""></path>
                    </g>
                </g>
            </g>
        </g>
    </g>
</svg>

<svg width="15" height="9" viewBox="0 0 15 9" version="1.1" xmlns="http://www.w3.org/2000/svg"><g id="Mobile" stroke="none" stroke-width="1" fill="none" fill-rule="evenodd"><g id="Mobile-Products" transform="translate(-1320 -1634)" fill="#53C999" fill-rule="nonzero"><g id="Group-11-Copy" transform="translate(1267.683 1256)"><g id="Group-10" transform="translate(30.344 186.5)"><g id="Group-9" transform="translate(12.605 177.5)"><path d="M16.605 23c1.37 0 2.67-.36 3.903-1.082a8.288 8.288 0 002.941-2.879c.104-.182.156-.362.156-.539 0-.177-.052-.357-.156-.54a8.342 8.342 0 00-2.941-2.874C19.276 14.362 17.975 14 16.605 14s-2.67.362-3.902 1.086a8.342 8.342 0 00-2.941 2.875 1.081 1.081 0 00-.157.539c0 .177.052.357.157.54a8.342 8.342 0 002.941 2.874c1.232.724 2.533 1.086 3.902 1.086zm-2-5.125a.362.362 0 01-.265-.11.362.362 0 01-.11-.265c0-.651.233-1.21.7-1.676a2.286 2.286 0 011.675-.699.36.36 0 01.266.11c.073.072.11.16.11.265a.362.362 0 01-.11.266.362.362 0 01-.266.109c-.448 0-.83.159-1.148.477-.318.317-.477.7-.477 1.148a.362.362 0 01-.11.266.362.362 0 01-.265.109zm2 4.125a6.432 6.432 0 01-3.394-.95 8.064 8.064 0 01-2.606-2.55c.792-1.23 1.784-2.148 2.977-2.758a3.414 3.414 0 00-.477 1.758 3.37 3.37 0 001.028 2.473A3.37 3.37 0 0016.605 21a3.37 3.37 0 002.473-1.027 3.37 3.37 0 001.027-2.473c0-.63-.159-1.216-.476-1.758 1.192.61 2.185 1.529 2.976 2.758A8.064 8.064 0 0120 21.05a6.432 6.432 0 01-3.395.95z" id=""/></g></g></g></g></g></svg>
